images/16758326.svg

<?xml version="1.0" encoding="UTF-8"?>
<svg xmlns="http://www.w3.org/2000/svg" xmlns:xlink="http://www.w3.org/1999/xlink" width="300pt" height="300pt" viewBox="0 0 300 300" version="1.1">
<defs>
<g>
<symbol overflow="visible" id="glyph0-0">
<path style="stroke:none;" d="M 0.546875 1.9375 L 0.546875 -7.75 L 6.046875 -7.75 L 6.046875 1.9375 Z M 1.171875 1.328125 L 5.4375 1.328125 L 5.4375 -7.140625 L 1.171875 -7.140625 Z M 1.171875 1.328125 "/>
</symbol>
<symbol overflow="visible" id="glyph0-1">
<path style="stroke:none;" d="M 4.328125 -7.28125 C 3.546875 -7.28125 2.921875 -6.984375 2.453125 -6.390625 C 1.992188 -5.804688 1.765625 -5.007812 1.765625 -4 C 1.765625 -2.988281 1.992188 -2.1875 2.453125 -1.59375 C 2.921875 -1.007812 3.546875 -0.71875 4.328125 -0.71875 C 5.117188 -0.71875 5.742188 -1.007812 6.203125 -1.59375 C 6.660156 -2.1875 6.890625 -2.988281 6.890625 -4 C 6.890625 -5.007812 6.660156 -5.804688 6.203125 -6.390625 C 5.742188 -6.984375 5.117188 -7.28125 4.328125 -7.28125 Z M 4.328125 -8.171875 C 5.453125 -8.171875 6.351562 -7.789062 7.03125 -7.03125 C 7.707031 -6.28125 8.046875 -5.269531 8.046875 -4 C 8.046875 -2.738281 7.707031 -1.726562 7.03125 -0.96875 C 6.351562 -0.21875 5.453125 0.15625 4.328125 0.15625 C 3.203125 0.15625 2.300781 -0.21875 1.625 -0.96875 C 0.957031 -1.71875 0.625 -2.726562 0.625 -4 C 0.625 -5.269531 0.957031 -6.28125 1.625 -7.03125 C 2.300781 -7.789062 3.203125 -8.171875 4.328125 -8.171875 Z M 4.328125 -8.171875 "/>
</symbol>
</g>
</defs>
<g id="surface47737">
<rect x="0" y="0" width="300" height="300" style="fill:rgb(100%,100%,100%);fill-opacity:1;stroke:none;"/>
<path style=" stroke:none;fill-rule:nonzero;fill:rgb(0%,0%,0%);fill-opacity:1;" d="M 211.894531 184.941406 L 233.636719 202.835938 L 238.449219 194.3125 Z M 211.894531 184.941406 "/>
<path style="fill:none;stroke-width:1.2;stroke-linecap:butt;stroke-linejoin:miter;stroke:rgb(0%,0%,0%);stroke-opacity:1;stroke-miterlimit:10;" d="M 211.894531 184.941406 L 193.808594 205.964844 "/>
<path style="fill:none;stroke-width:1.2;stroke-linecap:butt;stroke-linejoin:miter;stroke:rgb(0%,0%,0%);stroke-opacity:1;stroke-miterlimit:10;" d="M 220.554688 158.59375 L 211.894531 184.941406 "/>
<path style="fill:none;stroke-width:1.2;stroke-linecap:butt;stroke-linejoin:miter;stroke:rgb(0%,0%,0%);stroke-opacity:1;stroke-miterlimit:10;" d="M 193.808594 205.964844 L 169.058594 218.472656 "/>
<path style="fill:none;stroke-width:1.2;stroke-linecap:butt;stroke-linejoin:miter;stroke:rgb(0%,0%,0%);stroke-opacity:1;stroke-miterlimit:10;" d="M 169.058594 218.472656 L 141.40625 220.554688 "/>
<path style="fill:none;stroke-width:1.2;stroke-linecap:butt;stroke-linejoin:miter;stroke:rgb(0%,0%,0%);stroke-opacity:1;stroke-miterlimit:10;" d="M 141.40625 220.554688 L 115.058594 211.894531 "/>
<path style="fill:none;stroke-width:1.2;stroke-linecap:butt;stroke-linejoin:miter;stroke:rgb(0%,0%,0%);stroke-opacity:1;stroke-miterlimit:10;" d="M 112.21875 210.289062 L 105.402344 222.363281 "/>
<path style="fill:none;stroke-width:1.2;stroke-linecap:butt;stroke-linejoin:miter;stroke:rgb(100%,0%,0%);stroke-opacity:1;stroke-miterlimit:10;" d="M 105.402344 222.363281 L 98.585938 234.4375 "/>
<path style="fill:none;stroke-width:1.2;stroke-linecap:butt;stroke-linejoin:miter;stroke:rgb(0%,0%,0%);stroke-opacity:1;stroke-miterlimit:10;" d="M 117.898438 213.496094 L 111.082031 225.570312 "/>
<path style="fill:none;stroke-width:1.2;stroke-linecap:butt;stroke-linejoin:miter;stroke:rgb(100%,0%,0%);stroke-opacity:1;stroke-miterlimit:10;" d="M 111.082031 225.570312 L 104.265625 237.644531 "/>
<path style="fill:none;stroke-width:1.2;stroke-linecap:butt;stroke-linejoin:miter;stroke:rgb(0%,0%,0%);stroke-opacity:1;stroke-miterlimit:10;" d="M 115.058594 211.894531 L 104.546875 202.851562 "/>
<path style="fill:none;stroke-width:1.2;stroke-linecap:butt;stroke-linejoin:miter;stroke:rgb(100%,0%,0%);stroke-opacity:1;stroke-miterlimit:10;" d="M 104.546875 202.851562 L 94.035156 193.808594 "/>
<path style=" stroke:none;fill-rule:nonzero;fill:rgb(100%,100%,100%);fill-opacity:1;" d="M 92.425781 229.542969 L 101.425781 229.542969 L 101.425781 242.542969 L 92.425781 242.542969 Z M 92.425781 229.542969 "/>
<g style="fill:rgb(100%,0%,0%);fill-opacity:1;">
  <use xlink:href="#glyph0-1" x="92.425781" y="239.444336"/>
</g>
<path style="fill:none;stroke-width:1.2;stroke-linecap:butt;stroke-linejoin:miter;stroke:rgb(100%,0%,0%);stroke-opacity:1;stroke-miterlimit:10;" d="M 94.035156 193.808594 L 87.78125 181.433594 "/>
<path style="fill:none;stroke-width:1.2;stroke-linecap:butt;stroke-linejoin:miter;stroke:rgb(0%,0%,0%);stroke-opacity:1;stroke-miterlimit:10;" d="M 87.78125 181.433594 L 81.527344 169.058594 "/>
<path style=" stroke:none;fill-rule:nonzero;fill:rgb(100%,100%,100%);fill-opacity:1;" d="M 90.035156 187.308594 L 99.035156 187.308594 L 99.035156 200.308594 L 90.035156 200.308594 Z M 90.035156 187.308594 "/>
<g style="fill:rgb(100%,0%,0%);fill-opacity:1;">
  <use xlink:href="#glyph0-1" x="90.035156" y="197.209961"/>
</g>
<path style="fill:none;stroke-width:1.2;stroke-linecap:butt;stroke-linejoin:miter;stroke:rgb(0%,0%,0%);stroke-opacity:1;stroke-miterlimit:10;" d="M 81.527344 169.058594 L 79.445312 141.40625 "/>
<path style="fill:none;stroke-width:1.2;stroke-linecap:butt;stroke-linejoin:miter;stroke:rgb(0%,0%,0%);stroke-opacity:1;stroke-miterlimit:10;" d="M 79.445312 141.40625 L 88.105469 115.058594 "/>
<path style=" stroke:none;fill-rule:nonzero;fill:rgb(0%,0%,0%);fill-opacity:1;" d="M 79.445312 141.40625 L 52.511719 133.191406 L 51.328125 142.910156 Z M 79.445312 141.40625 "/>
<path style="fill:none;stroke-width:1.2;stroke-linecap:butt;stroke-linejoin:miter;stroke:rgb(0%,0%,0%);stroke-opacity:1;stroke-miterlimit:10;" d="M 88.105469 115.058594 L 106.191406 94.035156 "/>
<path style="fill:none;stroke-width:1;stroke-linecap:butt;stroke-linejoin:miter;stroke:rgb(0%,0%,0%);stroke-opacity:1;stroke-miterlimit:10;" d="M 88.105469 115.058594 L 88.105469 115.058594 M 85.789062 113.152344 L 85.277344 114.0625 M 83.472656 111.246094 L 82.449219 113.0625 M 81.15625 109.339844 L 79.621094 112.0625 M 78.839844 107.433594 L 76.792969 111.066406 M 76.523438 105.527344 L 73.960938 110.066406 M 74.207031 103.621094 L 71.132812 109.070312 M 71.890625 101.714844 L 68.304688 108.070312 M 69.574219 99.808594 L 65.476562 107.070312 M 67.257812 97.902344 L 62.644531 106.074219 M 66.363281 97.164062 L 61.550781 105.6875 "/>
<path style="fill:none;stroke-width:1.2;stroke-linecap:butt;stroke-linejoin:miter;stroke:rgb(0%,0%,0%);stroke-opacity:1;stroke-miterlimit:10;" d="M 106.191406 94.035156 L 130.941406 81.527344 "/>
<path style="fill:none;stroke-width:1.2;stroke-linecap:butt;stroke-linejoin:miter;stroke:rgb(0%,0%,0%);stroke-opacity:1;stroke-miterlimit:10;" d="M 111.605469 98.605469 L 131.410156 88.601562 "/>
<path style="fill:none;stroke-width:1.2;stroke-linecap:butt;stroke-linejoin:miter;stroke:rgb(0%,0%,0%);stroke-opacity:1;stroke-miterlimit:10;" d="M 130.941406 81.527344 L 158.59375 79.445312 "/>
<path style="fill:none;stroke-width:1.2;stroke-linecap:butt;stroke-linejoin:miter;stroke:rgb(0%,0%,0%);stroke-opacity:1;stroke-miterlimit:10;" d="M 158.59375 79.445312 L 184.941406 88.105469 "/>
<path style="fill:none;stroke-width:1.2;stroke-linecap:butt;stroke-linejoin:miter;stroke:rgb(0%,0%,0%);stroke-opacity:1;stroke-miterlimit:10;" d="M 187.78125 89.710938 L 194.597656 77.636719 "/>
<path style="fill:none;stroke-width:1.2;stroke-linecap:butt;stroke-linejoin:miter;stroke:rgb(100%,0%,0%);stroke-opacity:1;stroke-miterlimit:10;" d="M 194.597656 77.636719 L 201.414062 65.5625 "/>
<path style="fill:none;stroke-width:1.2;stroke-linecap:butt;stroke-linejoin:miter;stroke:rgb(0%,0%,0%);stroke-opacity:1;stroke-miterlimit:10;" d="M 182.101562 86.503906 L 188.917969 74.429688 "/>
<path style="fill:none;stroke-width:1.2;stroke-linecap:butt;stroke-linejoin:miter;stroke:rgb(100%,0%,0%);stroke-opacity:1;stroke-miterlimit:10;" d="M 188.917969 74.429688 L 195.734375 62.355469 "/>
<path style="fill:none;stroke-width:1.2;stroke-linecap:butt;stroke-linejoin:miter;stroke:rgb(0%,0%,0%);stroke-opacity:1;stroke-miterlimit:10;" d="M 184.941406 88.105469 L 195.453125 97.148438 "/>
<path style="fill:none;stroke-width:1.2;stroke-linecap:butt;stroke-linejoin:miter;stroke:rgb(100%,0%,0%);stroke-opacity:1;stroke-miterlimit:10;" d="M 195.453125 97.148438 L 205.964844 106.191406 "/>
<path style=" stroke:none;fill-rule:nonzero;fill:rgb(100%,100%,100%);fill-opacity:1;" d="M 194.574219 57.457031 L 203.574219 57.457031 L 203.574219 70.457031 L 194.574219 70.457031 Z M 194.574219 57.457031 "/>
<g style="fill:rgb(100%,0%,0%);fill-opacity:1;">
  <use xlink:href="#glyph0-1" x="194.574219" y="67.358398"/>
</g>
<path style="fill:none;stroke-width:1.2;stroke-linecap:butt;stroke-linejoin:miter;stroke:rgb(100%,0%,0%);stroke-opacity:1;stroke-miterlimit:10;" d="M 205.964844 106.191406 L 212.21875 118.566406 "/>
<path style="fill:none;stroke-width:1.2;stroke-linecap:butt;stroke-linejoin:miter;stroke:rgb(0%,0%,0%);stroke-opacity:1;stroke-miterlimit:10;" d="M 212.21875 118.566406 L 218.472656 130.941406 "/>
<path style=" stroke:none;fill-rule:nonzero;fill:rgb(100%,100%,100%);fill-opacity:1;" d="M 201.964844 99.691406 L 210.964844 99.691406 L 210.964844 112.691406 L 201.964844 112.691406 Z M 201.964844 99.691406 "/>
<g style="fill:rgb(100%,0%,0%);fill-opacity:1;">
  <use xlink:href="#glyph0-1" x="201.964844" y="109.592773"/>
</g>
<path style="fill:none;stroke-width:1.2;stroke-linecap:butt;stroke-linejoin:miter;stroke:rgb(0%,0%,0%);stroke-opacity:1;stroke-miterlimit:10;" d="M 218.472656 130.941406 L 220.554688 158.59375 "/>
<path style="fill:none;stroke-width:1;stroke-linecap:butt;stroke-linejoin:miter;stroke:rgb(0%,0%,0%);stroke-opacity:1;stroke-miterlimit:10;" d="M 220.554688 158.59375 L 220.554688 158.59375 M 223.421875 159.46875 L 223.546875 158.433594 M 226.292969 160.34375 L 226.542969 158.273438 M 229.160156 161.21875 L 229.539062 158.113281 M 232.03125 162.09375 L 232.535156 157.953125 M 234.902344 162.96875 L 235.53125 157.792969 M 237.769531 163.84375 L 238.527344 157.632812 M 240.640625 164.71875 L 241.523438 157.472656 M 243.511719 165.59375 L 244.519531 157.3125 M 246.378906 166.46875 L 247.515625 157.152344 M 247.488281 166.808594 L 248.671875 157.089844 "/>
<path style="fill:none;stroke-width:1.2;stroke-linecap:butt;stroke-linejoin:miter;stroke:rgb(100%,0%,0%);stroke-opacity:1;stroke-miterlimit:10;" d="M 248.082031 161.949219 L 256.414062 150.867188 "/>
<path style="fill:none;stroke-width:1.2;stroke-linecap:butt;stroke-linejoin:miter;stroke:rgb(0%,0%,0%);stroke-opacity:1;stroke-miterlimit:10;" d="M 256.414062 150.867188 L 264.75 139.785156 "/>
<path style=" stroke:none;fill-rule:nonzero;fill:rgb(100%,100%,100%);fill-opacity:1;" d="M 244.082031 155.449219 L 253.082031 155.449219 L 253.082031 168.449219 L 244.082031 168.449219 Z M 244.082031 155.449219 "/>
<g style="fill:rgb(100%,0%,0%);fill-opacity:1;">
  <use xlink:href="#glyph0-1" x="244.082031" y="165.350586"/>
</g>
<path style="fill:none;stroke-width:1.2;stroke-linecap:butt;stroke-linejoin:miter;stroke:rgb(100%,0%,0%);stroke-opacity:1;stroke-miterlimit:10;" d="M 51.917969 138.050781 L 43.585938 149.132812 "/>
<path style="fill:none;stroke-width:1.2;stroke-linecap:butt;stroke-linejoin:miter;stroke:rgb(0%,0%,0%);stroke-opacity:1;stroke-miterlimit:10;" d="M 43.585938 149.132812 L 35.25 160.214844 "/>
<path style=" stroke:none;fill-rule:nonzero;fill:rgb(100%,100%,100%);fill-opacity:1;" d="M 47.917969 131.550781 L 56.917969 131.550781 L 56.917969 144.550781 L 47.917969 144.550781 Z M 47.917969 131.550781 "/>
<g style="fill:rgb(100%,0%,0%);fill-opacity:1;">
  <use xlink:href="#glyph0-1" x="47.917969" y="141.452148"/>
</g>
</g>
</svg>

<svg xmlns="http://www.w3.org/2000/svg" xmlns:xlink="http://www.w3.org/1999/xlink" width="300pt" height="300pt" viewBox="0 0 300 300"><defs><symbol overflow="visible"><path d="M.547 1.938V-7.75h5.5v9.688zm.625-.61h4.266v-8.47H1.171zm0 0"/></symbol><symbol overflow="visible" id="a"><path d="M4.328-7.28c-.78 0-1.406.296-1.875.89-.46.585-.687 1.382-.687 2.39 0 1.012.226 1.813.687 2.406.47.586 1.094.875 1.875.875.79 0 1.414-.288 1.875-.874.457-.593.688-1.394.688-2.406 0-1.008-.23-1.805-.687-2.39-.46-.594-1.086-.89-1.875-.89zm0-.892c1.125 0 2.024.383 2.703 1.14C7.708-6.28 8.048-5.27 8.048-4c0 1.262-.34 2.273-1.016 3.03C6.353-.22 5.454.157 4.33.157S2.3-.22 1.625-.97c-.668-.75-1-1.757-1-3.03 0-1.27.332-2.28 1-3.03.676-.76 1.578-1.142 2.703-1.142zm0 0"/></symbol></defs><g><path fill="#fff" d="M0 0h300v300H0z"/><path d="M211.895 184.94l21.742 17.896 4.812-8.524zm0 0"/><path d="M211.895 184.94l-18.086 21.025M220.555 158.594l-8.66 26.347M193.81 205.965l-24.75 12.508M169.06 218.473l-27.654 2.082M141.406 220.555l-26.347-8.66M112.22 210.29l-6.818 12.073" stroke-width="1.2" stroke="#000" stroke-miterlimit="10" fill="none"/><path d="M105.402 222.363l-6.816 12.075" stroke-width="1.2" stroke="#f00" stroke-miterlimit="10" fill="none"/><path d="M117.898 213.496l-6.816 12.074" stroke-width="1.2" stroke="#000" stroke-miterlimit="10" fill="none"/><path d="M111.082 225.57l-6.816 12.075" stroke-width="1.2" stroke="#f00" stroke-miterlimit="10" fill="none"/><path d="M115.06 211.895l-10.513-9.043" stroke-width="1.2" stroke="#000" stroke-miterlimit="10" fill="none"/><path d="M104.547 202.852l-10.512-9.043" stroke-width="1.2" stroke="#f00" stroke-miterlimit="10" fill="none"/><path d="M92.426 229.543h9v13h-9zm0 0" fill="#fff"/><use xlink:href="#a" x="92.426" y="239.444" fill="#f00"/><path d="M94.035 193.81l-6.254-12.376" stroke-width="1.2" stroke="#f00" stroke-miterlimit="10" fill="none"/><path d="M87.78 181.434l-6.253-12.375" stroke-width="1.2" stroke="#000" stroke-miterlimit="10" fill="none"/><path d="M90.035 187.31h9v13h-9zm0 0" fill="#fff"/><use xlink:href="#a" x="90.035" y="197.21" fill="#f00"/><path d="M81.527 169.06l-2.082-27.654M79.445 141.406l8.66-26.347" stroke-width="1.2" stroke="#000" stroke-miterlimit="10" fill="none"/><path d="M79.445 141.406l-26.933-8.215-1.184 9.72zm0 0"/><path d="M88.105 115.06l18.086-21.025" stroke-width="1.2" stroke="#000" stroke-miterlimit="10" fill="none"/><path d="M88.105 115.06m-2.316-1.908l-.513.91m-1.804-2.816l-1.024 1.817m-1.294-3.723l-1.535 2.722m-.78-4.628l-2.047 3.632m-.27-5.54l-2.562 4.54m.247-6.445l-3.074 5.45m.758-7.355l-3.585 6.355m1.27-8.26l-4.098 7.26m1.78-9.168l-4.612 8.172m3.718-8.91l-4.812 8.523" stroke="#000" stroke-miterlimit="10" fill="none"/><path d="M106.19 94.035l24.75-12.508M111.605 98.605l19.805-10.003M130.94 81.527l27.654-2.082M158.594 79.445l26.347 8.66M187.78 89.71l6.818-12.073" stroke-width="1.2" stroke="#000" stroke-miterlimit="10" fill="none"/><path d="M194.598 77.637l6.816-12.075" stroke-width="1.2" stroke="#f00" stroke-miterlimit="10" fill="none"/><path d="M182.102 86.504l6.816-12.074" stroke-width="1.2" stroke="#000" stroke-miterlimit="10" fill="none"/><path d="M188.918 74.43l6.816-12.075" stroke-width="1.2" stroke="#f00" stroke-miterlimit="10" fill="none"/><path d="M184.94 88.105l10.513 9.043" stroke-width="1.2" stroke="#000" stroke-miterlimit="10" fill="none"/><path d="M195.453 97.148l10.512 9.043" stroke-width="1.2" stroke="#f00" stroke-miterlimit="10" fill="none"/><path d="M194.574 57.457h9v13h-9zm0 0" fill="#fff"/><use xlink:href="#a" x="194.574" y="67.358" fill="#f00"/><path d="M205.965 106.19l6.254 12.376" stroke-width="1.2" stroke="#f00" stroke-miterlimit="10" fill="none"/><path d="M212.22 118.566l6.253 12.375" stroke-width="1.2" stroke="#000" stroke-miterlimit="10" fill="none"/><path d="M201.965 99.69h9v13h-9zm0 0" fill="#fff"/><use xlink:href="#a" x="201.965" y="109.593" fill="#f00"/><path d="M218.473 130.94l2.082 27.654" stroke-width="1.2" stroke="#000" stroke-miterlimit="10" fill="none"/><path d="M220.555 158.594m2.867.875l.125-1.036m2.746 1.91l.25-2.07m2.617 2.945l.38-3.107m2.49 3.98l.505-4.14m2.367 5.016l.63-5.177m2.238 6.05l.757-6.21m2.114 7.086l.883-7.247m1.99 8.12l1.007-8.28m1.86 9.156l1.136-9.318m-.028 9.657l1.184-9.72" stroke="#000" stroke-miterlimit="10" fill="none"/><path d="M248.082 161.95l8.332-11.083" stroke-width="1.2" stroke="#f00" stroke-miterlimit="10" fill="none"/><path d="M256.414 150.867l8.336-11.082" stroke-width="1.2" stroke="#000" stroke-miterlimit="10" fill="none"/><path d="M244.082 155.45h9v13h-9zm0 0" fill="#fff"/><use xlink:href="#a" x="244.082" y="165.351" fill="#f00"/><path d="M51.918 138.05l-8.332 11.083" stroke-width="1.2" stroke="#f00" stroke-miterlimit="10" fill="none"/><path d="M43.586 149.133l-8.336 11.082" stroke-width="1.2" stroke="#000" stroke-miterlimit="10" fill="none"/><path d="M47.918 131.55h9v13h-9zm0 0" fill="#fff"/><use xlink:href="#a" x="47.918" y="141.452" fill="#f00"/></g></svg>
